X:1
T:St Helen
T:George Martin
T:(Lord enthroned in heavenly splendour)
%%score { ( 1 2 5 ) | ( 3 4 6 ) }
L:1/8
M:4/4
K:Bb
V:1 treble nm="Organ"
V:2 treble 
V:5 treble 
V:3 bass 
V:4 bass 
V:6 bass 
V:1
 B2 B2 B2 D2 | G3 F D2 C2 | B,2 B,2 G2 F2 | [CF]2 [B,G]2 A4 | F3 F c2 B2 | B3 A G2 F2 | %6
 F2 d2 c2 A2 | G2 G2 F4 | c3 c d2 c2 | d3 d e2 d2 | F2 B2 d2 c2 | B2 A2 B4 |] %12
V:2
 B,2 D2 E2 D2 | B,4 A,4 | B,2 A,2 [G,B,]2 B,2 | C4 [A,C]4 | C3 F F2 F2 | E3 E E2 E2 | D2 F2 F2 F2 | %7
 F2 =E2 F4 | F3 F F2 F2 | F3 F G2 F2 | F2 F2 _A2 G2 | F2 F2 F4 |] %12
V:3
 B,2 [F,B,]2 [B,,B,]4 | [B,,E,]3 D, F,2 E,2 | D,2 D,2 E,2 F,2 | A,2 =E,2 F,4 | A,3 A, A,2 B,2 | %5
 F,3 F, C2 C2 | B,2 B,2 C2 C2 | C2 B,2 A,4 | A,3 A, B,2 A,2 | B,3 B, B,2 B,2 | B,2 D2 F2 E2 | %11
 D2 C2 D4 |] %12
V:4
 B,,2 B,,A,, G,,2 F,,2 | E,,3 B,, [F,,F,]4 | G,,2 F,,2 E,,2 D,,2 | C,,4 F,,4 | F,3 F, E,2 D,2 | %5
 C,3 C, B,,2 A,,2 | B,,2 B,2 A,2 F,2 | C,2 C,2 F,4 | F,3 F, B,2 F,2 | B,3 B, E,2 B,,2 | %10
 D,2 B,2 =B,2 C2 | F,2 F,2 B,,4 |] %12
V:5
 x8 | x8 | x8 | x8 | x8 | x8 | x8 | x8 | x8 | x8 | B2 d2 f2 e2 | d2 c2 x4 |] %12
V:6
 x8 | x8 | x8 | x8 | x8 | x8 | x8 | x8 | x8 | x8 | x2 B,,2 =B,,2 C,2 | F,,2 F,,2 B,,4 |] %12

